X: 51
T: Queen Mary's Lamentation
%R: air, waltz
B: Urbani & Liston "A Selection of Scotch, English Irish, and Foreign Airs", Edinburgh 1800, p.20 #2
F: http://www.vwml.org/browse/browse-collections-dance-tune-books/browse-urbani1800
Z: 2014 John Chambers <jc:trillian.mit.edu>
Q: "Slow"
M: 3/4
L: 1/8
K: G
GB |\
d4 BG | (A2 B2 c2) | c2 B2 b>g | e<g g2 (ec) |\
A3 fac' | b<d'g<b e>g | d<BB<G TA2 | G4 GB |\
d4 BG | A2 B2 c2 |
c2 B4 G2 | d4 e>d |\
d<BB<G TA2 | G4 d>e | =f4 dB | A2 A3 B/c/ |\
{c2}B4 GB | d4 e>d | d<BB<G TA2 | G4 bg |
e<g gfac' | b<d'g<b e>g | (d<B)(B<G) A2 | G4 d>e |\
=f4 dB | A2 A3 (B/c/) | {c2}B4 G2 | d4 BG |\
D4 d>B | {B2}A4 (GB) |
d4 BG | e2 f2 g2 |\
Hf4 g>e | d4 e>d | d<BB<G TA2 | G4 (d'>b) |\
e<a a2 eA | A3 (cBd) | e<gd<B A>B | G4 |]

%%sep 1 1 500
%%sep 1 1 500
